packages/foundations/assets/icons/functional/images/notification/cross_circle_filled.svg

<svg xmlns="http://www.w3.org/2000/svg" width="32" height="32" fill="none"><path fill="#1A1C1F" fill-rule="evenodd" d="M14.72 2.06c-1.337.16-2.192.345-3.214.694a14.01 14.01 0 0 0-9.108 9.958 13.97 13.97 0 0 0 2.111 11.263c1.513 2.162 3.665 3.918 6.004 4.898 1.813.759 3.549 1.111 5.487 1.111 2.014 0 3.907-.403 5.746-1.224 3.133-1.398 5.81-4.13 7.127-7.273.76-1.814 1.111-3.55 1.11-5.487-.001-2.779-.782-5.401-2.282-7.665a14.06 14.06 0 0 0-9.621-6.178c-.537-.084-2.898-.153-3.36-.097m-3.905 7.515c.136.056.977.86 2.691 2.573l2.493 2.49 2.52-2.514c2.262-2.256 2.545-2.521 2.756-2.577.582-.154 1.115.191 1.209.781.073.466.09.445-2.609 3.152l-2.513 2.519 2.515 2.521c2.255 2.261 2.52 2.544 2.576 2.755.111.419-.031.827-.361 1.04a1.02 1.02 0 0 1-.773.164c-.212-.033-.384-.194-2.773-2.577l-2.547-2.541-2.493 2.491c-1.714 1.712-2.555 2.517-2.691 2.573-.575.237-1.199-.125-1.299-.753-.073-.466-.09-.445 2.609-3.152l2.513-2.519-2.515-2.521c-2.255-2.261-2.52-2.544-2.576-2.755-.208-.787.529-1.455 1.268-1.15"/></svg>

<svg width="32" height="32" viewBox="0 0 32 32" fill="none" xmlns="http://www.w3.org/2000/svg"><path d="M14.720 2.060 C 13.383 2.220,12.528 2.405,11.506 2.754 C 6.954 4.310,3.537 8.045,2.398 12.712 C 1.455 16.573,2.232 20.722,4.509 23.975 C 6.022 26.137,8.174 27.893,10.513 28.873 C 12.326 29.632,14.062 29.984,16.000 29.984 C 18.014 29.984,19.907 29.581,21.746 28.760 C 24.879 27.362,27.556 24.630,28.873 21.487 C 29.633 19.673,29.984 17.937,29.983 16.000 C 29.982 13.221,29.201 10.599,27.701 8.335 C 25.479 4.983,22.049 2.781,18.080 2.157 C 17.543 2.073,15.182 2.004,14.720 2.060 M10.815 9.575 C 10.951 9.631,11.792 10.435,13.506 12.148 L 15.999 14.638 18.519 12.124 C 20.781 9.868,21.064 9.603,21.275 9.547 C 21.857 9.393,22.390 9.738,22.484 10.328 C 22.557 10.794,22.574 10.773,19.875 13.480 L 17.362 15.999 19.877 18.520 C 22.132 20.781,22.397 21.064,22.453 21.275 C 22.564 21.694,22.422 22.102,22.092 22.315 C 21.843 22.476,21.608 22.526,21.319 22.479 C 21.107 22.446,20.935 22.285,18.546 19.902 L 15.999 17.361 13.506 19.852 C 11.792 21.564,10.951 22.369,10.815 22.425 C 10.240 22.662,9.616 22.300,9.516 21.672 C 9.443 21.206,9.426 21.227,12.125 18.520 L 14.638 16.001 12.123 13.480 C 9.868 11.219,9.603 10.936,9.547 10.725 C 9.339 9.938,10.076 9.270,10.815 9.575 " fill="#1A1C1F" stroke="none" fill-rule="evenodd"></path></svg>
